packages/kaspersky-hexa-ui-icons/src/iconsSVGs/16/ShieldSolid.svg

<svg width="16" height="16" viewBox="0 0 16 16" fill="none" xmlns="http://www.w3.org/2000/svg">
<path d="M7.24617 14.9202C6.90172 14.7766 6.43141 14.5472 5.91063 14.1992C4.86676 13.5015 3.61939 12.3259 2.78607 10.419C2.3725 9.47266 2.2793 8.45628 2.2793 7.5192V4.13223C2.2793 3.88957 2.41446 3.66711 2.62984 3.55532L7.23991 1.16234C7.7165 0.914961 8.28366 0.91496 8.76024 1.16234L13.3703 3.55532C13.5857 3.66711 13.7209 3.88957 13.7209 4.13223V7.4774C13.7209 8.44228 13.6224 9.49323 13.1778 10.4629C12.34 12.2901 11.1036 13.4518 10.0772 14.1554C9.56439 14.5069 9.10222 14.7454 8.76437 14.8973C8.69118 14.9302 8.25778 15.1501 8.00008 15.15C7.74238 15.15 7.47815 15.0169 7.24617 14.9202Z" fill="black"/>
</svg>

<svg xmlns="http://www.w3.org/2000/svg" width="16" height="16" fill="none" viewBox="0 0 16 16"><path fill="#000" fill-rule="evenodd" d="M7.2462 14.9201c-.3445-.1436-.8148-.373-1.3356-.7211-1.0438-.6976-2.2912-1.8732-3.1245-3.7801-.4136-.9464-.5068-1.9627-.5068-2.8998V4.132a.65.65 0 0 1 .3505-.577L7.24 1.1623a1.65 1.65 0 0 1 1.5203 0l4.6101 2.393a.65.65 0 0 1 .3506.5769v3.3452c0 .9649-.0985 2.0158-.5431 2.9855-.8378 1.8272-2.0742 2.9889-3.1006 3.6925-.5128.3515-.975.59-1.3128.7418-.0732.0329-.5066.2528-.7643.2528s-.522-.1331-.754-.2298"/></svg>
